material/.icons/material/star-box-multiple.svg

<svg xmlns="http://www.w3.org/2000/svg" viewBox="0 0 24 24"><path d="M4 6v14h14v2H3c-.6 0-1-.4-1-1V6h2m4-4h12a2 2 0 012 2v12c0 1.11-.89 2-2 2H8a2 2 0 01-2-2V4c0-1.1.9-2 2-2m8.3 11.3l-.4-2.6 1.9-1.9-2.6-.4L14 6l-1.2 2.4-2.6.4 1.9 1.8-.5 2.6L14 12l2.3 1.3z"/></svg>

<?xml version="1.0" encoding="UTF-8"?><!DOCTYPE svg PUBLIC "-//W3C//DTD SVG 1.1//EN" "http://www.w3.org/Graphics/SVG/1.1/DTD/svg11.dtd"><svg xmlns="http://www.w3.org/2000/svg" xmlns:xlink="http://www.w3.org/1999/xlink" version="1.1" id="mdi-star-box-multiple" width="24" height="24" viewBox="0 0 24 24"><path d="M4 6V20H18V22H3C2.4 22 2 21.6 2 21V6H4M8 2H20C21.11 2 22 2.9 22 4V16C22 17.11 21.11 18 20 18H8C6.9 18 6 17.11 6 16V4C6 2.9 6.9 2 8 2M16.3 13.3L15.9 10.7L17.8 8.8L15.2 8.4L14 6L12.8 8.4L10.2 8.8L12.1 10.6L11.6 13.2L14 12L16.3 13.3Z" /></svg>
